packages/bezier-icons/icons/code-block.svg

<svg width="24" height="24" viewBox="0 0 24 24" fill="none" xmlns="http://www.w3.org/2000/svg">
<path fill-rule="evenodd" clip-rule="evenodd" d="M18.4138 3.90614C18.6381 3.40146 18.4108 2.8105 17.9061 2.58619C17.4015 2.36189 16.8105 2.58918 16.5862 3.09387L12.5862 12.0939C12.3619 12.5986 12.5892 13.1895 13.0939 13.4138C13.5986 13.6381 14.1895 13.4108 14.4138 12.9061L18.4138 3.90614ZM12.7071 4.70711C13.0976 4.31658 13.0976 3.68342 12.7071 3.29289C12.3166 2.90237 11.6834 2.90237 11.2929 3.29289L9.29289 5.29289C8.90237 5.68342 8.90237 6.31658 9.29289 6.70711L11.2929 8.70711C11.6834 9.09763 12.3166 9.09763 12.7071 8.70711C13.0976 8.31658 13.0976 7.68342 12.7071 7.29289L11.4142 6L12.7071 4.70711ZM18.2929 7.29289C18.6834 6.90237 19.3166 6.90237 19.7071 7.29289L21.7071 9.29289C22.0976 9.68342 22.0976 10.3166 21.7071 10.7071L19.7071 12.7071C19.3166 13.0976 18.6834 13.0976 18.2929 12.7071C17.9024 12.3166 17.9024 11.6834 18.2929 11.2929L19.5858 10L18.2929 8.70711C17.9024 8.31658 17.9024 7.68342 18.2929 7.29289ZM7.87887 5.06148C7.91859 5.05823 7.95895 5.05516 8 5.05225V3.04797C7.01947 3.10784 6.32382 3.24243 5.73005 3.54497C4.78924 4.02433 4.02433 4.78924 3.54497 5.73005C3 6.79961 3 8.19974 3 11V13C3 15.8003 3 17.2004 3.54497 18.27C4.02433 19.2108 4.78924 19.9757 5.73005 20.455C6.79961 21 8.19974 21 11 21H13C15.8003 21 17.2004 21 18.27 20.455C19.2108 19.9757 19.9757 19.2108 20.455 18.27C20.8514 17.492 20.9595 16.5392 20.989 15H18.9886C18.98 15.4314 18.9649 15.7978 18.9385 16.1211C18.8805 16.8312 18.7779 17.1561 18.673 17.362C18.3854 17.9265 17.9265 18.3854 17.362 18.673C17.1561 18.7779 16.8312 18.8805 16.1211 18.9385C15.3877 18.9984 14.4331 19 13 19H11C9.56687 19 8.6123 18.9984 7.87887 18.9385C7.1688 18.8805 6.84387 18.7779 6.63803 18.673C6.07354 18.3854 5.6146 17.9265 5.32698 17.362C5.2221 17.1561 5.11949 16.8312 5.06148 16.1211C5.00156 15.3877 5 14.4331 5 13V11C5 9.56687 5.00156 8.6123 5.06148 7.87887C5.11949 7.1688 5.2221 6.84387 5.32698 6.63803C5.6146 6.07354 6.07354 5.6146 6.63803 5.32698C6.84387 5.2221 7.1688 5.11949 7.87887 5.06148Z" fill="#313234"/>
</svg>

<svg xmlns="http://www.w3.org/2000/svg" width="24" height="24" fill="none" viewBox="0 0 24 24"><path fill="#313234" fill-rule="evenodd" d="M18.414 3.906a1 1 0 0 0-1.828-.812l-4 9a1 1 0 1 0 1.828.812zm-5.707.801a1 1 0 0 0-1.414-1.414l-2 2a1 1 0 0 0 0 1.414l2 2a1 1 0 1 0 1.414-1.414L11.414 6zm5.586 2.586a1 1 0 0 1 1.414 0l2 2a1 1 0 0 1 0 1.414l-2 2a1 1 0 0 1-1.414-1.414L19.586 10l-1.293-1.293a1 1 0 0 1 0-1.414M7.879 5.06 8 5.052V3.048c-.98.06-1.676.194-2.27.497A5 5 0 0 0 3.545 5.73C3 6.8 3 8.2 3 11v2c0 2.8 0 4.2.545 5.27a5 5 0 0 0 2.185 2.185C6.8 21 8.2 21 11 21h2c2.8 0 4.2 0 5.27-.545a5 5 0 0 0 2.185-2.185c.396-.778.505-1.73.534-3.27h-2c-.009.431-.024.798-.05 1.121-.058.71-.161 1.035-.266 1.241a3 3 0 0 1-1.311 1.311c-.206.105-.53.208-1.24.266-.734.06-1.689.061-3.122.061h-2c-1.433 0-2.388-.002-3.121-.061-.71-.058-1.035-.161-1.241-.266a3 3 0 0 1-1.311-1.311c-.105-.206-.208-.53-.266-1.24C5.001 15.387 5 14.432 5 13v-2c0-1.433.002-2.388.061-3.121.058-.71.161-1.035.266-1.241a3 3 0 0 1 1.311-1.311c.206-.105.53-.208 1.24-.266" clip-rule="evenodd"/></svg>
